src/assets/sort-za.svg

<svg xmlns="http://www.w3.org/2000/svg" width="13" height="16" fill="none"><path stroke="#16ABF8" stroke-linecap="round" stroke-linejoin="round" d="M9.25 14.75V11c0-1.035.465-1.5 1.5-1.5s1.5.465 1.5 1.5v3.75m0-2.25h-3M12.25 6.5h-3l3-5.25h-3M1 10.25l2.25 2.25 2.25-2.25M3.25 3.5v9"/></svg>

<svg width="13" height="16" viewBox="0 0 13 16" fill="none" xmlns="http://www.w3.org/2000/svg">
<path d="M9.25 14.75V11C9.25 9.965 9.715 9.5 10.75 9.5C11.785 9.5 12.25 9.965 12.25 11V14.75M12.25 12.5H9.25" stroke="#16ABF8" stroke-linecap="round" stroke-linejoin="round"/>
<path d="M12.25 6.5H9.25L12.25 1.25H9.25" stroke="#16ABF8" stroke-linecap="round" stroke-linejoin="round"/>
<path d="M1 10.25L3.25 12.5L5.5 10.25" stroke="#16ABF8" stroke-linecap="round" stroke-linejoin="round"/>
<path d="M3.25 3.5V12.5" stroke="#16ABF8" stroke-linecap="round" stroke-linejoin="round"/>
</svg>
